/* XPM */
static const char * const app_xpm[] = {
/* columns rows colors chars-per-pixel */
"48 48 161 2 ",
"   c #010101",
".  c #040808",
"X  c #0B0B0B",
"o  c #131313",
"O  c #1A1A1A",
"+  c #242424",
"@  c #2B2B2B",
"#  c #2E3333",
"$  c #333434",
"%  c #353939",
"&  c #3D3E3E",
"*  c #4A0000",
"=  c #570000",
"-  c #551012",
";  c #5F171A",
":  c #640000",
">  c #760000",
",  c #7B0000",
"<  c #7B0811",
"1  c #4C4C4C",
"2  c #514546",
"3  c #515151",
"4  c #636363",
"5  c #6B6B6B",
"6  c #737373",
"7  c #7D7D7D",
"8  c #850000",
"9  c #940000",
"0  c #9C0000",
"q  c #941200",
"w  c #971E00",
"e  c #A50000",
"r  c #AA0000",
"t  c #A00B01",
"y  c #B50000",
"u  c #BE0000",
"i  c #A21102",
"p  c #B91903",
"a  c #B91C08",
"s  c #9E2100",
"d  c #A02600",
"f  c #AF2307",
"g  c #A62D01",
"h  c #AD2D04",
"j  c #BD2304",
"k  c #BC270C",
"l  c #B22908",
"z  c #BF2F0F",
"x  c #AC3200",
"c  c #B43505",
"v  c #BE3A0E",
"b  c #8D393E",
"n  c #96323A",
"m  c #C70000",
"M  c #CA0100",
"N  c #CA0E04",
"B  c #D2170A",
"V  c #C02703",
"C  c #C8390E",
"Z  c #D03E11",
"A  c #B54104",
"S  c #BD4A04",
"D  c #C14C04",
"F  c #C0400F",
"G  c #C35103",
"H  c #CC4111",
"J  c #D34615",
"K  c #D74719",
"L  c #DB421C",
"P  c #CC5416",
"I  c #D3660A",
"U  c #D56C0C",
"Y  c #DC750F",
"T  c #D67210",
"R  c #DB7912",
"E  c #E17E18",
"W  c #DF4E22",
"Q  c #DC5120",
"!  c #DB7728",
"~  c #DE7F2A",
"^  c #E28515",
"/  c #E4841B",
"(  c #E68F1E",
")  c #E99319",
"_  c #EB9821",
"`  c #F19C24",
"'  c #EC9837",
"]  c #F6AE21",
"[  c #F0AC2A",
"{  c #F2B42C",
"}  c #FDB32B",
"|  c #FFBB2E",
" . c #EFA53C",
".. c #FFCC2C",
"X. c #FFD22E",
"o. c #FEDB2E",
"O. c #FFC633",
"+. c #FACB3A",
"@. c #FFD537",
"#. c #FFD739",
"$. c #FFDD3F",
"%. c #FFEC34",
"&. c #FFE33A",
"*. c #FFF135",
"=. c #EC9E48",
"-. c #EFA14D",
";. c #F6B646",
":. c #F1AA51",
">. c #F4AE58",
",. c #F3B559",
"<. c #F7BE5E",
"1. c #F7BF60",
"2. c #F4B56D",
"3. c #FFCF48",
"4. c #FFDA42",
"5. c #FFD449",
"6. c #FEDB49",
"7. c #FFD550",
"8. c #FFE240",
"9. c #FFF245",
"0. c #FFEC5B",
"q. c #FFF852",
"w. c #FFF45F",
"e. c #FFD36C",
"r. c #F8C27A",
"t. c #FFF461",
"y. c #FFFD66",
"u. c #FFFD68",
"i. c #FFE47E",
"p. c #FFFC74",
"a. c #FFF67B",
"s. c #FFFD7F",
"d. c #858585",
"f. c #898989",
"g. c #929595",
"h. c #A2A2A2",
"j. c #FFEA8A",
"k. c #FFFF84",
"l. c #FFEB9D",
"z. c #FFF794",
"x. c #FFFA95",
"c. c #FFF09B",
"v. c #FFF1A8",
"b. c #FFF9A9",
"n. c #FFF0B0",
"m. c #FFFEB6",
"M. c #FFF6BA",
"N. c #FFFCBD",
"B. c #D4D3D3",
"V. c #DADADA",
"C. c #FFFDC4",
"Z. c #FFFFCB",
"A. c #FFFED2",
"S. c #FFFFDF",
"D. c #E2E2E2",
"F. c #FFFFE3",
"G. c #FFFFEC",
"H. c #F1F1F1",
"J. c #FFFFF5",
"K. c #FFFFFF",
"L. c None",
/* pixels */
"L.L.L.L.L.L.L.L.L.L.L.L.L.L.L.L.L.L.L.L.L.L.L.L.L.L.L.L.L.L.L.L.L.L.L.L.L.L.L.L.L.L.L.L.L.L.L.L.",
"L.L.L.L.L.L.L.L.L.L.L.L.L.L.L.L.L.L.L.L.L.L.L.L.L.L.L.L.L.L.L.L.L.L.L.L.L.L.L.L.L.L.L.L.L.L.L.L.",
"L.L.L.L.L.L.L.L.L.L.L.L.L.L.L.L.L.L.L.L.L.L.L.L.L.L.L.L.L.L.L.L.L.L.L.L.L.L.L.L.L.L.L.L.L.L.L.L.",
"L.L.L.L.L.L.L.L.L.L.L.L.L.L.L.L.L.L.L.L.L.L.L.L.L.L.L.L.L.L.L.L.L.L.L.L.L.L.L.L.L.L.L.L.L.L.L.L.",
"L.L.L.L.L.L.L.L.L.L.L.L.L.L.L.L.L.L.L.L.r r L.L.L.L.L.L.L.L.L.L.L.L.L.L.L.L.L.L.L.L.L.L.L.L.L.L.",
"L.L.L.L.L.L.L.L.L.L.L.L.L.L.L.L.L.L.L.e p k e L.L.L.L.L.L.L.L.L.L.L.L.L.L.L.L.L.L.L.L.L.L.L.L.L.",
"L.L.L.L.L.L.L.M m L.L.L.L.L.L.L.L.L.r p ;.' e L.L.L.L.L.L.L.L.L.L.L.L.L.L.L.L.L.L.L.L.L.L.L.L.L.",
"L.L.L.L.L.L.M B L M u u L.L.L.L.L.r j e.k.! 0 L.L.L.L.L.L.L.L.L.L.L.L.L.L.L.L.L.L.L.L.L.L.L.L.L.",
"L.L.L.L.L.L.m W c.2.K u y L.L.L.r j 1.C.p.P 9 L.L.L.L.L.L.L.L.L.L.L.L.L.L.L.L.L.L.L.L.L.L.L.L.L.",
"L.L.L.L.L.L.m N r.G.n.-.Z y r r p ,.Z.m.0.v 9 L.L.L.L.L.L.L.L.L.L.L.L.L.L.L.L.L.L.L.L.L.L.L.L.L.",
"L.L.L.L.L.L.L.u Q M.K.F.l.=.C V ,.C.C.x.5.f 9 L.L.L.L.L.L.L.L.L.L.L.L.L.L.L.L.L.L.L.L.L.L.L.L.L.",
"L.L.L.L.L.L.L.m u >.G.K.K.S.i.e.C.C.b.s.+.t L.L.L.L.L.L.L.L.L.L.L.L.L.L.L.L.L.L.L.L.L.L.L.L.L.L.",
"L.L.L.L.L.L.L.L.y J v.K.K.J.F.A.C.b.x.y.[ 9 L.L.L.L.L.L.L.L.L.L.L.L.L.L.L.L.L.L.L.L.L.L.L.L.L.L.",
"L.L.L.L.L.L.L.L.y y :.F.J.F.A.N.b.z.a.q.( 9 8 L.L.L.L.L.L.L.L.L.L.L.L.L.L.L.L.L.L.L.L.L.L.L.L.L.",
"L.L.L.L.L.L.L.L.L.r H j.F.A.N.b.z.a.w.9.o.^ h 8 , L.L.L.L.L.L.L.L.L.L.L.L.L.L.L.L.L.L.L.L.L.L.L.",
"L.L.L.L.L.L.L.L.L.r V e.A.N.b.z.a.w.9.*.*.%...R d , > L.L.L.L.L.L.L.L.L.L.L.L.L.L.L.L.L.L.L.L.L.",
"L.L.L.L.L.L.L.L.r p ,.Z.C.b.z.a.t.9.*.%.%.&.8.4.} U w , , L.L.L.L.L.L.L.L.L.L.L.L.L.L.L.L.L.L.L.",
"L.L.L.L.L.L.L.r j ,.C.C.b.z.a.t.9.%.%.%.&.8.4.5.5.3.} A > L.L.L.L.L.L.L.L.L.L.L.L.L.L.L.L.L.L.L.",
"L.L.L.L.L.L.r j <.Z.C.b.z.a.t.9.*.%.%.&.&.#.O.} [ / T g , L.L.L.L.L.L.L.L.L.L.L.L.L.L.L.L.L.L.L.",
"L.L.L.L.L.r a 1.C.m.x.s.y.q.9.*.*.%.&.] U G g q 8 8 > > L.L.L.L.L.L.L.L.L.L.L.L.L.L.L.L.L.L.L.L.",
"L.L.L.L.r a ;.k.p.t.6.+.{ _ o.*.%.&.&.I , < n b ; L.L.L.L.L.L.L.L.L.L.L.L.L.L.L.L.L.L.L.L.L.L.L.",
"L.L.L.L.e C  .~ P F l i 0 9 ) *.&.$.@.D : 2 B.K.g.& L.L.L.L.L.L.L.L.L.L.L.L.L.L.L.L.L.L.L.L.L.L.",
"L.L.L.L.L.e e 0 9 9 9 L.L.8 c X.&.4.O.x = . 1 V.K.g.% L.L.L.L.L.L.L.L.L.L.L.L.L.L.L.L.L.L.L.L.L.",
"L.L.L.L.L.L.L.L.L.L.L.L.L.L.8 ^ 4.5.} q *     3 V.K.g.$ L.L.L.L.L.L.L.L.L.L.L.L.L.L.L.L.L.L.L.L.",
"L.L.L.L.L.L.L.L.L.L.L.L.L.L., g | 7.` 8 - .     1 V.K.f.@ L.L.L.L.L.L.L.L.L.L.L.L.L.L.L.L.L.L.L.",
"L.L.L.L.L.L.L.L.L.L.L.L.L.L.L., Y 5.E , L.L..     1 V.K.d.@ L.L.L.L.L.L.L.L.L.L.L.L.L.L.L.L.L.L.",
"L.L.L.L.L.L.L.L.L.L.L.L.L.L.L.> d | U , L.L.# .     1 D.K.d.+ L.L.L.L.L.L.L.L.L.L.L.L.L.L.L.L.L.",
"L.L.L.L.L.L.L.L.L.L.L.L.L.L.L.L., S g , L.L.L.@       1 B.K.f.O L.L.L.L.L.L.L.L.L.L.L.L.L.L.L.L.",
"L.L.L.L.L.L.L.L.L.L.L.L.L.L.L.L., > , L.L.L.L.L.@ .     1 V.K.7 o L.L.L.L.L.L.L.L.L.L.L.L.L.L.L.",
"L.L.L.L.L.L.L.L.L.L.L.L.L.L.L.L.L.L.L.L.L.L.L.L.L.+       1 V.K.7 o L.L.L.L.L.L.L.L.L.L.L.L.L.L.",
"L.L.L.L.L.L.L.L.L.L.L.L.L.L.L.L.L.L.L.L.L.L.L.L.L.L.+       3 V.K.7 X L.L.L.L.L.L.L.L.L.L.L.L.L.",
"L.L.L.L.L.L.L.L.L.L.L.L.L.L.L.L.L.L.L.L.L.L.L.L.L.L.L.O       1 V.K.6   L.L.L.L.L.L.L.L.L.L.L.L.",
"L.L.L.L.L.L.L.L.L.L.L.L.L.L.L.L.L.L.L.L.L.L.L.L.L.L.L.L.O       1 V.K.5   L.L.L.L.L.L.L.L.L.L.L.",
"L.L.L.L.L.L.L.L.L.L.L.L.L.L.L.L.L.L.L.L.L.L.L.L.L.L.L.L.L.o       1 D.K.5   L.L.L.L.L.L.L.L.L.L.",
"L.L.L.L.L.L.L.L.L.L.L.L.L.L.L.L.L.L.L.L.L.L.L.L.L.L.L.L.L.L.o       1 V.K.6   L.L.L.L.L.L.L.L.L.",
"L.L.L.L.L.L.L.L.L.L.L.L.L.L.L.L.L.L.L.L.L.L.L.L.L.L.L.L.L.L.L.X       1 V.K.5   L.L.L.L.L.L.L.L.",
"L.L.L.L.L.L.L.L.L.L.L.L.L.L.L.L.L.L.L.L.L.L.L.L.L.L.L.L.L.L.L.L..       1 V.K.5   L.L.L.L.L.L.L.",
"L.L.L.L.L.L.L.L.L.L.L.L.L.L.L.L.L.L.L.L.L.L.L.L.L.L.L.L.L.L.L.L.L.        3 V.K.6   L.L.L.L.L.L.",
"L.L.L.L.L.L.L.L.L.L.L.L.L.L.L.L.L.L.L.L.L.L.L.L.L.L.L.L.L.L.L.L.L.L.        1 V.K.5   L.L.L.L.L.",
"L.L.L.L.L.L.L.L.L.L.L.L.L.L.L.L.L.L.L.L.L.L.L.L.L.L.L.L.L.L.L.L.L.L.L.        1 V.K.4   L.L.L.L.",
"L.L.L.L.L.L.L.L.L.L.L.L.L.L.L.L.L.L.L.L.L.L.L.L.L.L.L.L.L.L.L.L.L.L.L.L.        1 D.H.X L.L.L.L.",
"L.L.L.L.L.L.L.L.L.L.L.L.L.L.L.L.L.L.L.L.L.L.L.L.L.L.L.L.L.L.L.L.L.L.L.L.L.        3 h.X L.L.L.L.",
"L.L.L.L.L.L.L.L.L.L.L.L.L.L.L.L.L.L.L.L.L.L.L.L.L.L.L.L.L.L.L.L.L.L.L.L.L.L.      . X L.L.L.L.L.",
"L.L.L.L.L.L.L.L.L.L.L.L.L.L.L.L.L.L.L.L.L.L.L.L.L.L.L.L.L.L.L.L.L.L.L.L.L.L.L.L.    L.L.L.L.L.L.",
"L.L.L.L.L.L.L.L.L.L.L.L.L.L.L.L.L.L.L.L.L.L.L.L.L.L.L.L.L.L.L.L.L.L.L.L.L.L.L.L.L.L.L.L.L.L.L.L.",
"L.L.L.L.L.L.L.L.L.L.L.L.L.L.L.L.L.L.L.L.L.L.L.L.L.L.L.L.L.L.L.L.L.L.L.L.L.L.L.L.L.L.L.L.L.L.L.L.",
"L.L.L.L.L.L.L.L.L.L.L.L.L.L.L.L.L.L.L.L.L.L.L.L.L.L.L.L.L.L.L.L.L.L.L.L.L.L.L.L.L.L.L.L.L.L.L.L.",
"L.L.L.L.L.L.L.L.L.L.L.L.L.L.L.L.L.L.L.L.L.L.L.L.L.L.L.L.L.L.L.L.L.L.L.L.L.L.L.L.L.L.L.L.L.L.L.L."
};
