/* XPM */
static const char * const archive_extract[] = {
/* columns rows colors chars-per-pixel */
"16 16 256 2 ",
"   c None",
".  c #A2690E",
"X  c #A0670C",
"o  c #A0670C",
"O  c #A0660B",
"+  c #B36307",
"@  c #C96204",
"#  c #CE5D00",
"$  c #C66305",
"%  c #A0670C",
"&  c #A0670C",
"*  c #A0670C",
"=  c #A0680C",
"-  c #A66F19",
";  c #9F680C",
":  c #FFFFFF",
">  c #A46B10",
",  c #A77119",
"<  c #CCA367",
"1  c #CFA369",
"2  c #D16D18",
"3  c #E08631",
"4  c #E5841D",
"5  c #D3670B",
"6  c #D57F2F",
"7  c #E2C495",
"8  c #E5C99B",
"9  c #EED3A9",
"0  c #F1D7AE",
"q  c #F1D7AD",
"w  c #A56E17",
"e  c #A56C12",
"r  c #A46C12",
"t  c #D4A65F",
"y  c #D4B07A",
"u  c #C25D05",
"i  c #E79A49",
"p  c #F4B465",
"a  c #CC640A",
"s  c #834A0A",
"d  c #67440E",
"f  c #66430E",
"g  c #66430E",
"h  c #65430E",
"j  c #64420E",
"k  c #F4DBB3",
"l  c #D6AA66",
"z  c #A26B0F",
"x  c #A0670C",
"c  c #A36A0F",
"v  c #DA9D5E",
"b  c #D9761D",
"n  c #FBBD6B",
"m  c #DE832F",
"M  c #DDA163",
"N  c #E6C99D",
"B  c #E6C99D",
"V  c #E3BF8E",
"C  c #E6C99D",
"Z  c #E6C99D",
"A  c #E6C99D",
"S  c #E6C99D",
"D  c #B7873D",
"F  c #A0670C",
"G  c #A0670C",
"H  c #B17D2F",
"J  c #C46206",
"K  c #F0A14A",
"L  c #FBBA67",
"P  c #D06105",
"I  c #D19541",
"U  c #DAA553",
"Y  c #E1AE60",
"T  c #D06308",
"R  c #E8B267",
"E  c #EABA6F",
"W  c #EABA6F",
"Q  c #AD751E",
"!  c #AC7923",
"~  c #A1680E",
"^  c #FFFFFF",
"/  c #A0690A",
"(  c #CC5F01",
")  c #F8B059",
"_  c #FBB660",
"`  c #CF6003",
"'  c #D0933E",
"]  c #D8A351",
"[  c #E0AD5D",
"{  c #CE5C00",
"}  c #D46F14",
"|  c #E9B569",
" . c #EABA6F",
".. c #BF8A37",
"X. c #A2670E",
"o. c #FFFFFF",
"O. c #FFFFFF",
"+. c #A1670B",
"@. c #CE5D00",
"#. c #FAB35E",
"$. c #FAAF53",
"%. c #D87517",
"&. c #B46207",
"*. c #A0670C",
"=. c #A0670C",
"-. c #CE5C00",
";. c #DF7D1F",
":. c #C65F04",
">. c #A0660B",
",. c #A0670C",
"<. c #A2680E",
"1. c #FFFFFF",
"2. c #FFFFFF",
"3. c #FFFFFF",
"4. c #CD5D01",
"5. c #F7AB52",
"6. c #F9A13A",
"7. c #F6A64A",
"8. c #D3690E",
"9. c #CD670C",
"0. c #CC6B13",
"q. c #CE5C00",
"w. c #F9A949",
"e. c #DC7719",
"r. c #CE711E",
"t. c #A26910",
"y. c #FFFFFF",
"u. c #FFFFFF",
"i. c #FFFFFF",
"p. c #FFFFFF",
"a. c #CA6204",
"s. c #F0993D",
"d. c #F99C31",
"f. c #F99C31",
"g. c #F9A648",
"h. c #F09736",
"j. c #EC8F2F",
"k. c #F49B39",
"l. c #F9A545",
"z. c #F8A13E",
"x. c #DC7317",
"c. c #C16206",
"v. c #AA5500",
"b. c #FFFFFF",
"n. c #FFFFFF",
"m. c #FFFFFF",
"M. c #B86508",
"N. c #DA7319",
"B. c #F9A549",
"V. c #F79220",
"C. c #F78F1C",
"Z. c #F89628",
"A. c #F8972B",
"S. c #F79425",
"D. c #F78E1A",
"F. c #F79222",
"G. c #F69D39",
"H. c #D4690B",
"J. c #D05F01",
"K. c #FF0000",
"L. c #FFFFFF",
"P. c #FFFFFF",
"I. c #A56910",
"U. c #CE650B",
"Y. c #E47F20",
"T. c #F8A040",
"R. c #F8972E",
"E. c #F7901F",
"W. c #F78C18",
"Q. c #F78C18",
"!. c #F78E1B",
"~. c #F78D19",
"^. c #F89A35",
"/. c #DC7213",
"(. c #CE5D00",
"). c #BF4000",
"_. c #FFFFFF",
"`. c #FFFFFF",
"'. c #9F6000",
"]. c #A8690F",
"[. c #C46204",
"{. c #D46907",
"}. c #EA8522",
"|. c #F39432",
" X c #F79A37",
".X c #F79A34",
"XX c #F79A34",
"oX c #F7962D",
"OX c #DF7615",
"+X c #CE5E01",
"@X c #D15D00",
"#X c #FFFFFF",
"$X c #FFFFFF",
"%X c #FFFFFF",
"&X c #FFFFFF",
"*X c #FFFFFF",
"=X c #FFFFFF",
"-X c #CD5D00",
";X c #D05F01",
":X c #CF5E01",
">X c #CE5C00",
",X c #CE5C00",
"<X c #F7952F",
"1X c #E37816",
"2X c #D05E01",
"3X c #CF6000",
"4X c #FFFFFF",
"5X c #FFFFFF",
"6X c #FFFFFF",
"7X c #FFFFFF",
"8X c #FFFFFF",
"9X c #FFFFFF",
"0X c #FFFFFF",
"qX c #FFFFFF",
"wX c #FFFFFF",
"eX c #FFFFFF",
"rX c #FFFFFF",
"tX c #CE5C00",
"yX c #E67A17",
"uX c #CF5D00",
"iX c #D35900",
"pX c #FFFFFF",
"aX c #FFFFFF",
"sX c #FFFFFF",
"dX c #FFFFFF",
"fX c #FFFFFF",
"gX c #FFFFFF",
"hX c #FFFFFF",
"jX c #FFFFFF",
"kX c #FFFFFF",
"lX c #FFFFFF",
"zX c #FFFFFF",
"xX c #FFFFFF",
"cX c #CE5C00",
"vX c #D05E00",
"bX c #CE5A00",
"nX c #FFFFFF",
"mX c #FFFFFF",
"MX c #FFFFFF",
"NX c #FFFFFF",
"BX c #FFFFFF",
"VX c #FFFFFF",
"CX c #FFFFFF",
"ZX c #FFFFFF",
"AX c #FFFFFF",
"SX c #FFFFFF",
"DX c #FFFFFF",
"FX c #FFFFFF",
"GX c #FFFFFF",
"HX c #CE5C00",
"JX c #D15C00",
"KX c #FFFFFF",
"LX c #FFFFFF",
"PX c #FFFFFF",
"IX c #FFFFFF",
"UX c #FFFFFF",
/* pixels */
"  . X o O + @ # $ % & * = - ; : ",
"> , < 1 2 3 4 5 6 7 8 9 0 q w e ",
"r t y u i p a s d f g h j k l z ",
"x c v b n m M N B V C Z A S D F ",
"G H J K L P I U Y T R E W Q ! ~ ",
"^ / ( ) _ ` ' ] [ { } |  ...X.o.",
"O.+.@.#.$.%.&.*.=.-.;.:.>.,.<.1.",
"2.3.4.5.6.7.8.9.0.q.w.e.r.t.y.u.",
"i.p.a.s.d.f.g.h.j.k.l.z.x.c.v.b.",
"n.m.M.N.B.V.C.Z.A.S.D.F.G.H.J.K.",
"L.P.I.U.Y.T.R.E.W.Q.!.~.^./.(.).",
"_.`.'.].[.{.}.|. X.XXXoXOX+X@X#X",
"$X%X&X*X=X-X;X:X>X,X<X1X2X3X4X5X",
"6X7X8X9X0XqXwXeXrXtXyXuXiXpXaXsX",
"dXfXgXhXjXkXlXzXxXcXvXbXnXmXMXNX",
"BXVXCXZXAXSXDXFXGXHXJXKXLXPXIXUX"
};
