/* XPM */
static const char * const arrow_down_2[] = {
/* columns rows colors chars-per-pixel */
"32 32 213 2 ",
"   c #002C96",
".  c #002F97",
"X  c #003097",
"o  c #003198",
"O  c #00319B",
"+  c #00329B",
"@  c #05339A",
"#  c #00349F",
"$  c #0034A1",
"%  c #0039A3",
"&  c #0038A7",
"*  c #023AA6",
"=  c #0939A0",
"-  c #003AAB",
";  c #003BAD",
":  c #003EB1",
">  c #1D4BA5",
",  c #1848AC",
"<  c #0441B5",
"1  c #0043B8",
"2  c #0045BE",
"3  c #0047BF",
"4  c #0548BD",
"5  c #0A49B9",
"6  c #0849BD",
"7  c #1B55BA",
"8  c #355BAD",
"9  c #2558B8",
"0  c #3063BD",
"q  c #3668BA",
"w  c #0048C1",
"e  c #0049C4",
"r  c #004CC8",
"t  c #004CC9",
"y  c #004DC9",
"u  c #004EC9",
"i  c #004CCA",
"p  c #004ECB",
"a  c #004FCB",
"s  c #004FCC",
"d  c #044FCC",
"f  c #0051CF",
"g  c #0953CD",
"h  c #1054C6",
"j  c #0252D1",
"k  c #0054D2",
"l  c #0655D2",
"z  c #0054D5",
"x  c #0055D6",
"c  c #0B58D1",
"v  c #0D5FD7",
"b  c #0057DA",
"n  c #0058DA",
"m  c #0559D8",
"M  c #005BDF",
"N  c #185ED0",
"B  c #1361D6",
"V  c #1862D2",
"C  c #1E63D1",
"Z  c #3C6EC6",
"A  c #2266D4",
"S  c #266FDB",
"D  c #2B70D4",
"F  c #2C73DB",
"G  c #005AE0",
"H  c #005CE1",
"J  c #005DE3",
"K  c #035FE2",
"L  c #005EE4",
"P  c #005EE5",
"I  c #005EE6",
"U  c #005FE7",
"Y  c #005FE8",
"T  c #0160E6",
"R  c #0060E7",
"E  c #0C63E1",
"W  c #0060E8",
"Q  c #0060E9",
"!  c #0262E8",
"~  c #0060EA",
"^  c #0061EA",
"/  c #0060EB",
"(  c #0161EB",
")  c #0062EB",
"_  c #0563E8",
"`  c #0364EC",
"'  c #0164EF",
"]  c #0C68E8",
"[  c #0868ED",
"{  c #116AE7",
"}  c #156BE4",
"|  c #1A6EE3",
" . c #116BE9",
".. c #106CEC",
"X. c #1773EE",
"o. c #0167F2",
"O. c #0467F0",
"+. c #056AF4",
"@. c #0A6DF3",
"#. c #0B6FF6",
"$. c #056DF8",
"%. c #066FFB",
"&. c #0B70F6",
"*. c #0670FD",
"=. c #0570FE",
"-. c #0D73FA",
";. c #0E75FC",
":. c #0F76FE",
">. c #0F77FF",
",. c #167AFB",
"<. c #1078FF",
"1. c #177BFD",
"2. c #187DFF",
"3. c #197DFF",
"4. c #197EFF",
"5. c #1A7EFF",
"6. c #1B7FFF",
"7. c #297FEF",
"8. c #287FF1",
"9. c #1D80FF",
"0. c #3A83E5",
"q. c #2283FF",
"w. c #2284FF",
"e. c #2384FF",
"r. c #2485FF",
"t. c #2585FF",
"y. c #2B8AFF",
"u. c #2D8AFF",
"i. c #2D8BFF",
"p. c #2E8BFE",
"a. c #2F8CFF",
"s. c #3488F2",
"d. c #318EFF",
"f. c #328EFF",
"g. c #3691FF",
"h. c #3791FF",
"j. c #3792FF",
"k. c #3C95FF",
"l. c #3D95FF",
"z. c #5B86C4",
"x. c #5C88C6",
"c. c #4888DB",
"v. c #5284D4",
"b. c #6181C0",
"n. c #6381C2",
"m. c #6286C3",
"M. c #4283E2",
"N. c #4692EF",
"B. c #5A95E8",
"V. c #4391F0",
"C. c #4895F5",
"Z. c #4D99F5",
"A. c #469BFF",
"S. c #509EF6",
"D. c #679AE1",
"F. c #4DA1FF",
"G. c #4EA1FF",
"H. c #50A0FF",
"J. c #5AA3F9",
"K. c #5BA6FE",
"L. c #58A8FA",
"P. c #5FA8FD",
"I. c #5DA9FF",
"U. c #5FABFF",
"Y. c #68A1E2",
"T. c #77ABEF",
"R. c #78ABEC",
"E. c #61A8F6",
"W. c #66B1FF",
"Q. c #6AB3FF",
"!. c #7CBCFA",
"~. c #79BBFF",
"^. c #7ABAFF",
"/. c #7ABFFE",
"(. c #7ABEFF",
"). c #89A2D4",
"_. c #9DB7E1",
"`. c #83B9F4",
"'. c #90C1EB",
"]. c #86C0F9",
"[. c #83C2FD",
"{. c #84C2FF",
"}. c #8FCCFF",
"|. c #97CBFF",
" X c #94CCFF",
".X c #99CEFF",
"XX c #98D1FD",
"oX c #B4CEEE",
"OX c #AAD7FF",
"+X c #A5D9FF",
"@X c #AFD8FF",
"#X c #ADDAFF",
"$X c #B9D6F5",
"%X c #B3DCF2",
"&X c #B5DBFD",
"*X c #BEDEFC",
"=X c #B0E2FE",
"-X c #BCE7FF",
";X c #C6E4FF",
":X c #C7E8FF",
">X c #D9E1F0",
",X c #D8EEFF",
"<X c #C7F1FF",
"1X c #D3F5FF",
"2X c #DDF3FF",
"3X c #DAFDFF",
"4X c #E6F4FE",
"5X c #EEF1F9",
"6X c #E6FEFE",
"7X c #F1F7FD",
"8X c #F4FCFF",
"9X c #FBFFFF",
"0X c None",
/* pixels */
"0X0X0X0X0X0X0X0X0X0X0X0X0X0X0X0X0X0X0X0X0X0X0X0X0X0X0X0X0X0X0X0X",
"0X0X0X0X0X0X0X0X0X0X0X0X0X0X0X0X0X0X0X0X0X0X0X0X0X0X0X0X0X0X0X0X",
"0X0X0X0X0X0X0X0X0X0X0X0X0X0X0X0X0X0X0X0X0X0X0X0X0X0X0X0X0X0X0X0X",
"0X0X0X0X0X0X0X0X0X0X0X0X0X0X0X0X0X0X0X0X0X0X0X0X0X0X0X0X0X0X0X0X",
"0X0X0X0X0X0X0X0X0X0X0X0X0X0X0X0X0X0X0X0X0X0X0X0X0X0X0X0X0X0X0X0X",
"0X0X0X0X0X0X0X0X0X0X0X0X0X0X0X0X0X0X0X0X0X0X0X0X0X0X0X0X0X0X0X0X",
"0X0X0X0X0X0X0X0X0X0X0X0X0X0X0X0X0X0X0X0X0X0X0X0X0X0X0X0X0X0X0X0X",
"0X0X0X0Xo . . . o # % 0X0X0X0X0X0X0X0X0X0X0Xp s j k x n 0X0X0X0X",
"0X0X0XX > b.m.z.x.q & 0X0X0X0X0X0X0X0X0X0Xp v | } { ] J M 0X0X0X",
"0X0X0X. 8 >X9X6X3X%X0 - 0X0X0X0X0X0X0X0Xp A C.g.u.w.,._ J 0X0X0X",
"0X0X0X0X@ n.5X8X1X<X'.7 : 0X0X0X0X0X0Xr N T.G.u.w.1.[ J 0X0X0X0X",
"0X0X0X0Xo = ).7X2X-X=XY.5 1 0X0X0X0Xu g B.K.y.w.2.@.L L 0X0X0X0X",
"0X0X0X0X0X$ , _.4X:X+XXXc.4 4 0X0X0Xd M.E.u.w.2.&.T L 0X0X0X0X0X",
"0X0X0X0X0X0X& 9 oX,X#X}.!.D w 0X0Xp S J.f.w.5.-._ L 0X0X0X0X0X0X",
"0X0X0X0X0X0X0X; Z $X;X X(.P.V u p B Z.g.q.5.;.` L 0X0X0X0X0X0X0X",
"0X0X0X0X0X0X0X0X< v.*X&X~.W.N.g l 7.g.t.5.;.O.Y 0X0X0X0X0X0X0X0X",
"0X0X0X0X0X0X0X0X1 6 D.&X.XI.G.s.s.u.w.5.<.+.T Y 0X0X0X0X0X0X0X0X",
"0X0X0X0X0X0X0X0X0X3 h R.OX^.A.l.y.q.5.<.$./ T 0X0X0X0X0X0X0X0X0X",
"0X0X0X0X0X0X0X0X0X0Xe C `..XI.a.t.5.<.*.) T 0X0X0X0X0X0X0X0X0X0X",
"0X0X0X0X0X0X0X0X0X0X0Xs F `.{.l.5.<.*.` / 0X0X0X0X0X0X0X0X0X0X0X",
"0X0X0X0X0X0X0X0X0X0X0X0Xj 0.[.Q.6.*.o.T / 0X0X0X0X0X0X0X0X0X0X0X",
"0X0X0X0X0X0X0X0X0X0X0X0Xx m N.(.G.#./ / 0X0X0X0X0X0X0X0X0X0X0X0X",
"0X0X0X0X0X0X0X0X0X0X0X0X0Xb E S.L.../ 0X0X0X0X0X0X0X0X0X0X0X0X0X",
"0X0X0X0X0X0X0X0X0X0X0X0X0X0XG  .X./ 0X0X0X0X0X0X0X0X0X0X0X0X0X0X",
"0X0X0X0X0X0X0X0X0X0X0X0X0X0X0XY / 0X0X0X0X0X0X0X0X0X0X0X0X0X0X0X",
"0X0X0X0X0X0X0X0X0X0X0X0X0X0X0X0X0X0X0X0X0X0X0X0X0X0X0X0X0X0X0X0X",
"0X0X0X0X0X0X0X0X0X0X0X0X0X0X0X0X0X0X0X0X0X0X0X0X0X0X0X0X0X0X0X0X",
"0X0X0X0X0X0X0X0X0X0X0X0X0X0X0X0X0X0X0X0X0X0X0X0X0X0X0X0X0X0X0X0X",
"0X0X0X0X0X0X0X0X0X0X0X0X0X0X0X0X0X0X0X0X0X0X0X0X0X0X0X0X0X0X0X0X",
"0X0X0X0X0X0X0X0X0X0X0X0X0X0X0X0X0X0X0X0X0X0X0X0X0X0X0X0X0X0X0X0X",
"0X0X0X0X0X0X0X0X0X0X0X0X0X0X0X0X0X0X0X0X0X0X0X0X0X0X0X0X0X0X0X0X",
"0X0X0X0X0X0X0X0X0X0X0X0X0X0X0X0X0X0X0X0X0X0X0X0X0X0X0X0X0X0X0X0X"
};
