/* XPM */
static const char *const build_xpm[] = {
/* columns rows colors chars-per-pixel */
"22 22 97 2 ",
"   c #107CD6",
".  c #127DD6",
"X  c #167ED4",
"o  c #107ED8",
"O  c #337DCE",
"+  c #1782D8",
"@  c #1D86DB",
"#  c #1E86DC",
"$  c #1188DE",
"%  c #1789DC",
"&  c #1F88DB",
"*  c #258AD2",
"=  c #3E8FD0",
"-  c #2791DA",
";  c #2A96D8",
":  c #259FDE",
">  c #3C9EDC",
",  c #26A8DF",
"<  c #1289E0",
"1  c #148BE0",
"2  c #158BE0",
"3  c #118CE2",
"4  c #108DE5",
"5  c #118FE4",
"6  c #118EE5",
"7  c #108FE5",
"8  c #128FE4",
"9  c #188FE0",
"0  c #1592E6",
"q  c #1496E5",
"w  c #1896E5",
"e  c #1A9AE7",
"r  c #1A9BE7",
"t  c #1C9BE4",
"y  c #1E9EE7",
"u  c #1594E9",
"i  c #1A9BE8",
"p  c #2A9FE5",
"a  c #18A0EF",
"s  c #18A2F0",
"d  c #1BACF8",
"f  c #1CBAFE",
"g  c #39A2E8",
"h  c #27B4E3",
"j  c #4696D3",
"k  c #499BD6",
"l  c #479FD9",
"z  c #55A5DE",
"x  c #73A7C8",
"c  c #57A4E2",
"v  c #1EC0FF",
"b  c #23DAFF",
"n  c #8BA1B6",
"m  c #97ACBA",
"M  c #B1B1B1",
"N  c #8BBBE9",
"B  c #98C6EA",
"V  c #ABD2EF",
"C  c #A5D6F5",
"Z  c #D5E1EB",
"A  c #D6E3ED",
"S  c #D9E6EF",
"D  c #CBE1F2",
"F  c #CFE4F2",
"G  c #D7E7F4",
"H  c #D9E7F0",
"J  c #D1EBFB",
"K  c #E3E3E3",
"L  c #E4E4E4",
"P  c #E5E5E5",
"I  c #E6E6E6",
"U  c #E7E7E7",
"Y  c #E8E8E8",
"T  c #E9E9E9",
"R  c #EAEAEA",
"E  c #EBEBEB",
"W  c #ECECEC",
"Q  c #EDEDED",
"!  c #EEEEEE",
"~  c #EFEFEF",
"^  c #F0F0F0",
"/  c #F1F1F1",
"(  c #F2F2F2",
")  c #F3F3F3",
"_  c #F4F4F4",
"`  c #F5F5F5",
"'  c #F6F6F6",
"]  c #F7F7F7",
"[  c #F8F8F8",
"{  c #F9F9F9",
"}  c #FAFAFA",
"|  c #FBFBFB",
" . c #FCFCFC",
".. c #FDFDFD",
"X. c #FEFEFE",
"o. c #FFFFFF",
"O. c None",
/* pixels */
"O.O.O.O.M M M M M M M M M M M M M M M M M M ",
"O.O.O.O.M  . .{ {  . . . . . . . .{ ] ( { M ",
"O.O.O.O.M  . .{  . . . . . . . . . .{ {  .M ",
"O.O.O.O.M  .{ {  . . . . . . . . . . .{  .M ",
"O.O.O.O.m J D G { {  . . . . . . . . . . .M ",
"O.O.O.O.x C B V { { { {  . . . . . . . . .M ",
"O.O.O.O.p g c z { { { {  . . . . . . . . .M ",
"O.O.O.O.i 5 # + ] ] { { {  . . . . . . . .M ",
"O.O.O.O.i 5 @ + ] ] ] ] { { {  . . . . . .M ",
"O.O.O.O.e 5 @ + ( ] ] ] ] ] { { { {  . . .M ",
"O.O.O.O.t 5 & + ( ( ( ] ( ] ] { { { { {  .M ",
"O q 5 - y 1 + + + + + N ( ] ] ] { { { {  .M ",
"O.h b f s 2   $ 0 q > F ( ] ( ] ] ] ] {  .M ",
"O.O., v a 2   1 % l S ( ] ( ( ] ] ] ] ]  .M ",
"O.O.O.: d $ o % k H ( ( ( ( ( ] ] ] ] {  .M ",
"O.O.O.O.; u X j S ^ ~ ( ( ( ( ( ( ] ] {  .M ",
"O.O.O.O.n * = Z ~ E ~ ~ ( ~ ( ( ( ] ] ]  .M ",
"O.O.O.O.M ] E ~ ~ E ~ ~ ~ ( ~ ( ( ( ( (  .M ",
"O.O.O.O.M ] ~ ~ ~ ~ ~ ( ( ( ( ( ] ( ] ]  .M ",
"O.O.O.O.M ~ K K U U U U U E E E E E E ~ { M ",
"O.O.O.O.M M M M M M M M M M M M M M M M M M ",
"O.O.O.O.O.O.O.O.O.O.O.O.O.O.O.O.O.O.O.O.O.O."
};
