/* XPM */
static const char * const conf_model[] = {
/* columns rows colors chars-per-pixel */
"22 22 145 2 ",
"   c #20201F",
".  c #232326",
"X  c #272729",
"o  c #28282A",
"O  c #28282B",
"+  c #29292B",
"@  c #2D2D2D",
"#  c #2D2D31",
"$  c #2E2E31",
"%  c #2E2E32",
"&  c #333336",
"*  c #343437",
"=  c #373739",
"-  c #3A3A39",
";  c #38383B",
":  c #3A3A3A",
">  c #38383C",
",  c #3A3A3E",
"<  c #3E3E3E",
"1  c #3E3E40",
"2  c #3F3F40",
"3  c #3F3F42",
"4  c #404040",
"5  c #424242",
"6  c #404044",
"7  c #434347",
"8  c #444446",
"9  c #444448",
"0  c #484848",
"q  c #484849",
"w  c #48484A",
"e  c #4A4A4F",
"r  c #4D4D4F",
"t  c #4F4F52",
"y  c #5D5D63",
"u  c #5E5E63",
"i  c #606065",
"p  c #616167",
"a  c #69696F",
"s  c #6B6B72",
"d  c #6C6C76",
"f  c #6E6E77",
"g  c #6F6F77",
"h  c #707076",
"j  c #787883",
"k  c #7D7D85",
"l  c #7C7C86",
"z  c #878791",
"x  c #878793",
"c  c #8A8A95",
"v  c #8C8C97",
"b  c #8E8E97",
"n  c #8E8E98",
"m  c #8F8F99",
"M  c #91919B",
"N  c #94949E",
"B  c #9898A4",
"V  c #A3A3AD",
"C  c #ABABB7",
"Z  c #B1B1BD",
"A  c #B2B2C1",
"S  c #B8B8C4",
"D  c #BBBBC5",
"F  c #B9B9C7",
"G  c #BDBDC6",
"H  c #BDBDC7",
"J  c #B7B7C8",
"K  c #BDBDC9",
"L  c #BFBFC8",
"P  c #C1C1CB",
"I  c #C9C9CE",
"U  c #C1C1D4",
"Y  c #C2C2D4",
"T  c #C3C3D5",
"R  c #C8C8D0",
"E  c #C9C9D0",
"W  c #CACAD0",
"Q  c #CBCBD1",
"!  c #CBCBD7",
"~  c #CECED4",
"^  c #C9C9D8",
"/  c #C8C8D9",
"(  c #CACAD8",
")  c #CACADA",
"_  c #CBCBDB",
"`  c #CCCCDA",
"'  c #CCCCDC",
"]  c #CDCDDC",
"[  c #CCCCDD",
"{  c #CECEDE",
"}  c #CFCFDF",
"|  c #D0D0D5",
" . c #D1D1D5",
".. c #D2D2DF",
"X. c #D1D1E0",
"o. c #D1D1E2",
"O. c #D2D2E3",
"+. c #D4D4E3",
"@. c #D7D7E3",
"#. c #D4D4E4",
"$. c #D7D7E4",
"%. c #D9D9E5",
"&. c #DADAE4",
"*. c #DBDBE4",
"=. c #D8D8E6",
"-. c #DCDCE4",
";. c #DCDCE5",
":. c #DDDDE6",
">. c #DFDFE7",
",. c #DCDCE8",
"<. c #E0E0E8",
"1. c #E1E1E9",
"2. c #E2E2EA",
"3. c #E2E3EC",
"4. c #E3E3EC",
"5. c #E5E5EC",
"6. c #E4E4ED",
"7. c #E5E5ED",
"8. c #E4E4EE",
"9. c #E9E9ED",
"0. c #E9E9EF",
"q. c #EAEAEF",
"w. c #E5E5F0",
"e. c #E7E7F0",
"r. c #EAEAF0",
"t. c #EBEBF0",
"y. c #EDEDF2",
"u. c #ECECF3",
"i. c #EAEAF4",
"p. c #EFEFF5",
"a. c #ECECF6",
"s. c #EFEFF7",
"d. c #F0F0F7",
"f. c #F5F5F7",
"g. c #F2F2FA",
"h. c #F5F5FA",
"j. c #F4F4FB",
"k. c #F6F6FB",
"l. c #FBFBFB",
"z. c #F8F8FC",
"x. c #FBFBFC",
"c. c #FCFCFD",
"v. c #FEFEFF",
"b. c #FFFFFF",
"n. c None",
/* pixels */
"n.n.n.n.n.n.n.n.n.n.n.n.n.n.n.n.n.n.n.n.n.n.",
"n.n.n.n.t u h a t n.n.n.n.n.n.n.n.n.n.n.n.n.",
"n.n.n.n.f ` ../ F k 5 n.n.n.n.n.n.n.n.n.n.n.",
"n.n.n.n.9 M O.T / %.x n.n.n.n.n.n.n.n.n.n.n.",
"n.r f 9 n.4 v [ ! @...p n.n.n.n.n.n.n.n.n.n.",
"n.y ..N < n.4 m @.&.0.v n.n.n.n.n.n.n.n.n.n.",
"n.s [ O.c - n.p $.6.d.V - n.n.n.n.n.n.n.n.n.",
"n.p T T [ x y C 6.t.h.M n.n.n.n.n.n.n.n.n.n.",
"n.8 A / / @.@.3.0.f.d.G w n.n.n.n.n.n.n.n.n.",
"n.n.h O.@.;.6.t.f.y.%.x.W 5 n.n.n.n.n.n.n.n.",
"n.n.@ j ` w.s.h.y.;.t.l.v.R 5 n.n.n.n.n.n.n.",
"n.n.n.n.e l B z Z j.x.v.v.v.W 3 n.n.n.n.n.n.",
"n.n.n.n.n.n.. n.- G v.v.v.v.v.Q = n.n.n.n.n.",
"n.n.n.n.n.n.n.n.n.* G v.v.v.v.v.W > n.n.n.n.",
"n.n.n.n.n.n.n.n.n.n.$ G v.v.0.0.v. .= n.n.n.",
"n.n.n.n.n.n.n.n.n.n.n.$ G g.<.5.t.v.Q $ n.n.",
"n.n.n.n.n.n.n.n.n.n.n.n.O F i.2.2.! j. .- n.",
"n.n.n.n.n.n.n.n.n.n.n.n.n.+ G s.;.J 3.0.7 n.",
"n.n.n.n.n.n.n.n.n.n.n.n.n.n.X F i.6.;.7 n.n.",
"n.n.n.n.n.n.n.n.n.n.n.n.n.n.n.. P ,.5 n.n.n.",
"n.n.n.n.n.n.n.n.n.n.n.n.n.n.n.n.+ , n.n.n.n.",
"n.n.n.n.n.n.n.n.n.n.n.n.n.n.n.n.n.n.n.n.n.n."
};
