/* XPM */
static const char * const edit_xpm[] = {
/* columns rows colors chars-per-pixel */
"16 16 256 2 ",
"   c None",
".  c #A9ACA6",
"X  c #AAADA6",
"o  c #A9ABA5",
"O  c #A8ABA5",
"+  c #A8AAA4",
"@  c #A7AAA4",
"#  c #A7AAA4",
"$  c #A7A9A3",
"%  c #A8ABA5",
"&  c #A5A8A1",
"*  c #FFFFFF",
"=  c #FFFFFF",
"-  c #FFFFFF",
";  c #FFFFFF",
":  c #FFFFFF",
">  c #FFFFFF",
",  c #A9ABA5",
"<  c #EEEFED",
"1  c #FFFFFF",
"2  c #FFFFFF",
"3  c #FFFFFF",
"4  c #FFFFFF",
"5  c #FFFFFF",
"6  c #F9FAF9",
"7  c #E9E9E8",
"8  c #AFB2AC",
"9  c #A5A8A2",
"0  c #FFFFFF",
"q  c #EA2B2B",
"w  c #ED2424",
"e  c #FFFFFF",
"r  c #FFFFFF",
"t  c #A5A7A1",
"y  c #FEFEFE",
"u  c #EBECE9",
"i  c #E7E9E5",
"p  c #E5E8E3",
"a  c #E3E6E1",
"s  c #E1E4DE",
"d  c #E2E5DF",
"f  c #D9DAD8",
"g  c #FDFDFD",
"h  c #BDBEBA",
"j  c #D64E4C",
"k  c #EF2B2B",
"l  c #ED2D2D",
"z  c #EE2D2D",
"x  c #FFFFFF",
"c  c #A3A6A0",
"v  c #FDFEFD",
"b  c #E7E9E5",
"n  c #C2C5C0",
"m  c #C1C3BF",
"M  c #BFC2BD",
"N  c #BEC0BB",
"B  c #BCBFBA",
"V  c #B8B9B5",
"C  c #FEFEFE",
"Z  c #B48C86",
"A  c #A77572",
"S  c #BF7170",
"D  c #E78585",
"F  c #EF2D2D",
"G  c #FFFFFF",
"H  c #A2A49E",
"J  c #FDFDFD",
"K  c #E4E6E1",
"L  c #E1E3DE",
"P  c #DFE2DD",
"I  c #DEE1DB",
"U  c #DCE0D9",
"Y  c #DBDED7",
"T  c #BFC1BB",
"R  c #9F8872",
"E  c #9D9A94",
"W  c #D0D1CF",
"Q  c #8E8984",
"!  c #C77776",
"~  c #EE2D2D",
"^  c #FFFFFF",
"/  c #A0A29C",
"(  c #FDFDFD",
")  c #E0E3DC",
"_  c #BCBFBA",
"`  c #BBBEB8",
"'  c #BABDB7",
"]  c #B9BBB6",
"[  c #B8BAB4",
"{  c #B0855D",
"}  c #9A8A77",
"|  c #919088",
" . c #A9A9A6",
".. c #80817F",
"X. c #AB6D6A",
"o. c #EE2A2A",
"O. c #FFFFFF",
"+. c #9EA19B",
"@. c #FDFDFD",
"#. c #DCE0DA",
"$. c #DADDD7",
"%. c #DADDD6",
"&. c #D9DCD5",
"*. c #D8DAD4",
"=. c #D28F53",
"-. c #DB7E2B",
";. c #FBC06D",
":. c #D8A35C",
">. c #8A8982",
",. c #918C86",
"<. c #AA6D67",
"1. c #FFFFFF",
"2. c #FFFFFF",
"3. c #9D9F99",
"4. c #FDFDFD",
"5. c #DCDFD9",
"6. c #BABBB6",
"7. c #B9BCB6",
"8. c #B9BAB4",
"9. c #C78143",
"0. c #DB802E",
"q. c #FBC06D",
"w. c #F4AB4E",
"e. c #E89D54",
"r. c #8F887B",
"t. c #998975",
"y. c #989A95",
"u. c #FFFFFF",
"i. c #FFFFFF",
"p. c #9B9D97",
"a. c #FDFDFD",
"s. c #DDE0DA",
"d. c #DBDED8",
"f. c #DCDED7",
"g. c #D48B4C",
"h. c #DC8431",
"j. c #FBC16D",
"k. c #F4AB4E",
"l. c #E89D53",
"z. c #D06916",
"x. c #DCC0AA",
"c. c #989A94",
"v. c #969993",
"b. c #FFFFFF",
"n. c #FFFFFF",
"m. c #999B96",
"M. c #FDFDFD",
"N. c #E0E3DD",
"B. c #BEBEBA",
"V. c #CB8141",
"C. c #DD8432",
"Z. c #FCC16C",
"A. c #F4AB4E",
"S. c #E79D52",
"D. c #D06815",
"F. c #DBBEA0",
"G. c #FEFEFE",
"H. c #969893",
"J. c #959791",
"K. c #FFFFFF",
"L. c #FFFFFF",
"P. c #979A94",
"I. c #FDFDFD",
"U. c #E3E6E1",
"Y. c #E2C093",
"T. c #E4AA66",
"R. c #FDD69F",
"E. c #F4AB4E",
"W. c #E79C51",
"Q. c #D16A16",
"!. c #D8BDA1",
"~. c #DBDDD8",
"^. c #F6F6F6",
"/. c #949691",
"(. c #939590",
"). c #FFFFFF",
"_. c #FFFFFF",
"`. c #969892",
"'. c #FDFEFD",
"]. c #E7E8E4",
"[. c #E2B36E",
"{. c #F2D6B3",
"}. c #FFFFFF",
"|. c #EDB57E",
" X c #CE6712",
".X c #C5AB93",
"XX c #CACCC9",
"oX c #D5D7D3",
"OX c #F5F5F5",
"+X c #93958F",
"@X c #91938E",
"#X c #FFFFFF",
"$X c #FFFFFF",
"%X c #949691",
"&X c #FEFEFD",
"*X c #C2BAAA",
"=X c #967748",
"-X c #ECC18F",
";X c #E7B06A",
":X c #E1A155",
">X c #BDA690",
",X c #C4C5C2",
"<X c #CDCECB",
"1X c #DDDEDB",
"2X c #F9F9F9",
"3X c #91938E",
"4X c #90928C",
"5X c #FFFFFF",
"6X c #FFFFFF",
"7X c #92958F",
"8X c #FEFEFE",
"9X c #5A4E3B",
"0X c #231C11",
"qX c #C7A676",
"wX c #C1B094",
"eX c #C0BEB7",
"rX c #D1D1CF",
"tX c #E1E2E0",
"yX c #EDEEEC",
"uX c #EFF0EE",
"iX c #FFFFFE",
"pX c #8F918C",
"aX c #8E908B",
"sX c #FFFFFF",
"dX c #FFFFFF",
"fX c #969893",
"gX c #ECEDEB",
"hX c #D2CFC6",
"jX c #F1F1F0",
"kX c #FBFBFA",
"lX c #FFFFFF",
"zX c #FFFFFF",
"xX c #FFFFFF",
"cX c #FFFFFF",
"vX c #FFFFFF",
"bX c #FFFFFF",
"nX c #EFEFEE",
"mX c #93958F",
"MX c #8C8E89",
"NX c #FFFFFF",
"BX c #FFFFFF",
"VX c #90928D",
"CX c #949691",
"ZX c #8E908B",
"AX c #8E908B",
"SX c #8E908B",
"DX c #8D8F8A",
"FX c #8D8F8A",
"GX c #8D8F89",
"HX c #8C8E89",
"JX c #8C8E89",
"KX c #8C8E88",
"LX c #90928E",
"PX c #8D8F8A",
"IX c #FFFFFF",
"UX c #FFFFFF",
/* pixels */
"  . X o O + @ # $ % & * = - ; : ",
"> , < 1 2 3 4 5 6 7 8 9 0 q w e ",
"r t y u i p a s d f g h j k l z ",
"x c v b n m M N B V C Z A S D F ",
"G H J K L P I U Y T R E W Q ! ~ ",
"^ / ( ) _ ` ' ] [ { } |  ...X.o.",
"O.+.@.#.$.%.&.*.=.-.;.:.>.,.<.1.",
"2.3.4.5.6.7.8.9.0.q.w.e.r.t.y.u.",
"i.p.a.s.d.f.g.h.j.k.l.z.x.c.v.b.",
"n.m.M.N.B.V.C.Z.A.S.D.F.G.H.J.K.",
"L.P.I.U.Y.T.R.E.W.Q.!.~.^./.(.).",
"_.`.'.].[.{.}.|. X.XXXoXOX+X@X#X",
"$X%X&X*X=X-X;X:X>X,X<X1X2X3X4X5X",
"6X7X8X9X0XqXwXeXrXtXyXuXiXpXaXsX",
"dXfXgXhXjXkXlXzXxXcXvXbXnXmXMXNX",
"BXVXCXZXAXSXDXFXGXHXJXKXLXPXIXUX"
};
