/* XPM */
static const char * const model_info[] = {
/* columns rows colors chars-per-pixel */
"16 16 256 2 ",
"   c #B1B1B1",
".  c #B1B1B1",
"X  c #B1B1B1",
"o  c #B0B0B0",
"O  c #ABABAB",
"+  c #A0A0A0",
"@  c #A9A9A9",
"#  c #AFAFAF",
"$  c #B1B1B1",
"%  c #B1B1B1",
"&  c #B1B1B1",
"*  c #B1B1B1",
"=  c #B1B1B1",
"-  c None",
";  c #FFFFFF",
":  c #FFFFFF",
">  c #B1B1B1",
",  c #FFFFFF",
"<  c #F0F1F1",
"1  c #A9A9AA",
"2  c #838385",
"3  c #909192",
"4  c #8E8E91",
"5  c #8C8C8C",
"6  c #DCDCDD",
"7  c #FFFFFF",
"8  c #FFFFFF",
"9  c #FFFFFF",
"0  c #B1B1B1",
"q  c #FFFFFF",
"w  c #FFFFFF",
"e  c #FFFFFF",
"r  c #B1B1B1",
"t  c #F6F6F6",
"y  c #888687",
"u  c #FEFEFE",
"i  c #FEFFFF",
"p  c #FCFDFE",
"a  c #FDFEFE",
"s  c #FDFEFE",
"d  c #7E7F85",
"f  c #D8DADB",
"g  c #F7F9FB",
"h  c #FBFDFE",
"j  c #B1B1B1",
"k  c #FFFFFF",
"l  c #FFFFFF",
"z  c #FFFFFF",
"x  c #B0B0B0",
"c  c #9B9B9C",
"v  c #C9CBD1",
"b  c #FEFDFD",
"n  c #EFF4FA",
"m  c #F1F5FA",
"M  c #F2F6FB",
"N  c #F1F5FB",
"B  c #F4F8FC",
"V  c #767981",
"C  c #DAE6F3",
"Z  c #FCFDFE",
"A  c #B1B1B1",
"S  c #FFFFFF",
"D  c #FFFFFF",
"F  c #FFFFFF",
"G  c #A9A9A9",
"H  c #86888F",
"J  c #FEFEFE",
"K  c #FBF9FA",
"L  c #FAFCFC",
"P  c #FCFCFD",
"I  c #FDFDFE",
"U  c #FDFDFE",
"Y  c #FDFDFD",
"T  c #7F848F",
"R  c #EBECED",
"E  c #FDFDFE",
"W  c #B1B1B1",
"Q  c #FFFFFF",
"!  c #FFFFFF",
"~  c #FFFFFF",
"^  c #9B9B9B",
"/  c #9CA0AE",
"(  c #ECECEC",
")  c #FCFAFA",
"_  c #F1F5FA",
"`  c #EFF6FA",
"'  c #F1F5FA",
"]  c #F1F5FA",
"[  c #F5F8FC",
"{  c #868FA2",
"}  c #BFC9D4",
"|  c #FDFDFE",
" . c #B1B1B1",
".. c #FFFFFF",
"X. c #FFFFFF",
"o. c #FFFFFF",
"O. c #A9A9A9",
"+. c #9195A0",
"@. c #FEFEFE",
"#. c #FAFBFB",
"$. c #EBFCFC",
"%. c #FBFCFC",
"&. c #FCFEFE",
"*. c #F9FAFB",
"=. c #FDFEFE",
"-. c #9097A7",
";. c #E5E5E7",
":. c #FCFDFE",
">. c #B1B1B1",
",. c #FFFFFF",
"<. c #FFFFFF",
"1. c #FFFFFF",
"2. c #B0B0B0",
"3. c #7F7F7F",
"4. c #E4F6FB",
"5. c #FEFEFE",
"6. c #E7FCFD",
"7. c #F6FAFC",
"8. c #FDFEFE",
"9. c #FDFDFE",
"0. c #C5E0FE",
"q. c #868B93",
"w. c #D8E4F1",
"e. c #FCFDFE",
"r. c #B1B1B1",
"t. c #FFFFFF",
"y. c #FFFFFF",
"u. c #FFFFFF",
"i. c #B1B1B1",
"p. c #E6E6E6",
"a. c #9699A3",
"s. c #EAFDFF",
"d. c #FFFFFF",
"f. c #FFFFFF",
"g. c #FFFFFF",
"h. c #DFF4FF",
"j. c #888C95",
"k. c #A8A9A9",
"l. c #F6F8F9",
"z. c #FCFDFE",
"x. c #B1B1B1",
"c. c #FFFFFF",
"v. c #FFFFFF",
"b. c #FFFFFF",
"n. c #B1B1B1",
"m. c #FDFDFD",
"M. c #969696",
"N. c #777677",
"B. c #79808D",
"V. c #8088A2",
"C. c #7D8597",
"Z. c #8D9096",
"A. c #45484D",
"S. c #5A5C5C",
"D. c #DBDFE4",
"F. c #FCFDFE",
"G. c #B1B1B1",
"H. c #FFFFFF",
"J. c #FFFFFF",
"K. c #FFFFFF",
"L. c #B1B1B1",
"P. c #FBFBFB",
"I. c #F8F7F7",
"U. c #F0ECEC",
"Y. c #E8EAEB",
"T. c #D2D3D5",
"R. c #E3E3E5",
"E. c #EFF0F2",
"W. c #F2F3F5",
"Q. c #464646",
"!. c #4D4F50",
"~. c #D9DADC",
"^. c #BABABA",
"/. c #FFFFFF",
"(. c #FFFFFF",
"). c #FFFFFF",
"_. c #B1B1B1",
"`. c #FAFAFA",
"'. c #ACACAC",
"]. c #EFEBEB",
"[. c #D8E3F0",
"{. c #D8E4F1",
"}. c #D8E4F1",
"|. c #D8E4F1",
" X c #D9E4F1",
".X c #D9E5F2",
"XX c #3C3F42",
"oX c #5D5D5F",
"OX c #D9DADC",
"+X c #EFF1F1",
"@X c #FFFFFF",
"#X c #FFFFFF",
"$X c #B1B1B1",
"%X c #F9F9F9",
"&X c #F8F7F7",
"*X c #EEEAEA",
"=X c #EDEFF0",
"-X c #EEEFF1",
";X c #EEEFF1",
":X c #EFF0F2",
">X c #F0F1F3",
",X c #F1F2F4",
"<X c #F2F4F5",
"1X c #424444",
"2X c #6D6F6F",
"3X c #EFF1F2",
"4X c #E1E1E2",
"5X c #FFFFFF",
"6X c #B1B1B1",
"7X c #F8F8F8",
"8X c #B3B3B3",
"9X c #EDE9E9",
"0X c #D7E2F0",
"qX c #D7E3F0",
"wX c #D7E3F0",
"eX c #D7E3F0",
"rX c #D8E3F1",
"tX c #D8E4F1",
"yX c #D8E4F1",
"uX c #FAFCFD",
"iX c #343434",
"pX c #7A7A7B",
"aX c #FFFFFF",
"sX c #E5E5E7",
"dX c #B1B1B1",
"fX c #FFFFFF",
"gX c #F6F6F6",
"hX c #F8F8F8",
"jX c #F9F9F9",
"kX c #FAFAFA",
"lX c #FAFAFA",
"zX c #FBFBFB",
"xX c #FDFDFD",
"cX c #FEFEFE",
"vX c #FFFFFF",
"bX c #FFFFFF",
"nX c #B1B1B1",
"mX c #131515",
"MX c #6D6F70",
"NX c #030303",
"BX c #B1B1B1",
"VX c #B1B1B1",
"CX c #B1B1B1",
"ZX c #B1B1B1",
"AX c #B1B1B1",
"SX c #B1B1B1",
"DX c #B1B1B1",
"FX c #B1B1B1",
"GX c #B1B1B1",
"HX c #B1B1B1",
"JX c #B1B1B1",
"KX c #B1B1B1",
"LX c #B1B1B1",
"PX c #000000",
"IX c #000000",
"UX c #000000",
/* pixels */
"  . X o O + @ # $ % & * = - ; : ",
"> , < 1 2 3 4 5 6 7 8 9 0 q w e ",
"r t y u i p a s d f g h j k l z ",
"x c v b n m M N B V C Z A S D F ",
"G H J K L P I U Y T R E W Q ! ~ ",
"^ / ( ) _ ` ' ] [ { } |  ...X.o.",
"O.+.@.#.$.%.&.*.=.-.;.:.>.,.<.1.",
"2.3.4.5.6.7.8.9.0.q.w.e.r.t.y.u.",
"i.p.a.s.d.f.g.h.j.k.l.z.x.c.v.b.",
"n.m.M.N.B.V.C.Z.A.S.D.F.G.H.J.K.",
"L.P.I.U.Y.T.R.E.W.Q.!.~.^./.(.).",
"_.`.'.].[.{.}.|. X.XXXoXOX+X@X#X",
"$X%X&X*X=X-X;X:X>X,X<X1X2X3X4X5X",
"6X7X8X9X0XqXwXeXrXtXyXuXiXpXaXsX",
"dXfXgXhXjXkXlXzXxXcXvXbXnXmXMXNX",
"BXVXCXZXAXSXDXFXGXHXJXKXLXPXIXUX"
};
