/* XPM */
static const char *open_folder[] = {
/* columns rows colors chars-per-pixel */
"16 16 256 2 ",
"   c None",
".  c #FFFFFF",
"X  c #FFFFFF",
"o  c #FFFFFF",
"O  c #FFFFFF",
"+  c #FFFFFF",
"@  c #FFFFFF",
"#  c #FFFFFF",
"$  c #FFFFFF",
"%  c #FFFFFF",
"&  c #FFFFFF",
"*  c #FFFFFF",
"=  c #FFFFFF",
"-  c #FFFFFF",
";  c #FFFFFF",
":  c #FFFFFF",
">  c #FFFFFF",
",  c #FFFFFF",
"<  c #FFFFFF",
"1  c #586B74",
"2  c #6E7E86",
"3  c #6D7D85",
"4  c #6A7A82",
"5  c #64747C",
"6  c #5D6D75",
"7  c #586971",
"8  c #4B626B",
"9  c #FFFFFF",
"0  c #FFFFFF",
"q  c #FFFFFF",
"w  c #FFFFFF",
"e  c #FFFFFF",
"r  c #FFFFFF",
"t  c #A07002",
"y  c #9C6C00",
"u  c #7A7B66",
"i  c #E2E2E2",
"p  c #DFDFDF",
"a  c #DCDCDC",
"s  c #D5D5D5",
"d  c #C2C2C2",
"f  c #8B9397",
"g  c #738289",
"h  c #445E64",
"j  c #FFFFFF",
"k  c #FFFFFF",
"l  c #FFFFFF",
"z  c #FFFFFF",
"x  c #FFFFFF",
"c  c #9B6C00",
"v  c #E9AD1B",
"b  c #908D6E",
"n  c #E5E5E5",
"m  c #A1AAAF",
"M  c #8A969C",
"N  c #89959B",
"B  c #869298",
"V  c #6F7E86",
"C  c #D8DBDC",
"Z  c #717D7F",
"A  c #8C680F",
"S  c #9C6D00",
"D  c #9F7001",
"F  c #FFFFFF",
"G  c #FFFFFF",
"H  c #9B6C00",
"J  c #E6AA1A",
"K  c #8F8C6E",
"L  c #E8E8E8",
"P  c #E5E5E5",
"I  c #E2E2E2",
"U  c #DFDFDF",
"Y  c #DCDCDC",
"T  c #B9BEC1",
"R  c #97A0A5",
"E  c #8C969B",
"W  c #656E62",
"Q  c #DAA016",
"!  c #9D6E01",
"~  c #FFFFFF",
"^  c #FFFFFF",
"/  c #9B6C00",
"(  c #DDA318",
")  c #8E8B6F",
"_  c #ECECEC",
"`  c #A5AEB3",
"'  c #8E9AA0",
"]  c #8C989E",
"[  c #8B979D",
"{  c #89959B",
"}  c #A4ACAF",
"|  c #C6C6C6",
" . c #7F7B5D",
".. c #DCA118",
"X. c #9B6C00",
"o. c #FFFFFF",
"O. c #FFFFFF",
"+. c #9B6C00",
"@. c #D59C16",
"#. c #8C896E",
"$. c #EFEFEF",
"%. c #ECECEC",
"&. c #E9E9E9",
"*. c #E6E6E6",
"=. c #E3E3E3",
"-. c #E0E0E0",
";. c #DDDDDD",
":. c #DADADA",
">. c #827F62",
",. c #D39A15",
"<. c #9B6C00",
"1. c #FFFFFF",
"2. c #FFFFFF",
"3. c #9B6C00",
"4. c #CD9413",
"5. c #8B896F",
"6. c #F2F2F2",
"7. c #A9B2B7",
"8. c #919DA3",
"9. c #8F9BA1",
"0. c #8E9AA0",
"q. c #8C989E",
"w. c #A8B0B3",
"e. c #DDDDDD",
"r. c #858266",
"t. c #CB9313",
"y. c #9B6C00",
"u. c #FFFFFF",
"i. c #FFFFFF",
"p. c #9B6C00",
"a. c #B07D09",
"s. c #9A7927",
"d. c #B4903C",
"f. c #AE862C",
"g. c #A87E1D",
"h. c #A27610",
"j. c #9D6F04",
"k. c #9D6E03",
"l. c #A0720A",
"z. c #A27611",
"x. c #9D720E",
"c. c #A57508",
"v. c #9E6F03",
"b. c #FFFFFF",
"n. c #FFFFFF",
"m. c #9B6C00",
"M. c #C09328",
"N. c #CCA035",
"B. c #D2A73C",
"V. c #D7AC41",
"C. c #DCB146",
"Z. c #E1B74C",
"A. c #E6BC51",
"S. c #E6BC51",
"D. c #E4B94E",
"F. c #E1B64B",
"G. c #DEB348",
"H. c #D9AE43",
"J. c #9C6D01",
"K. c #FFFFFF",
"L. c #FFFFFF",
"P. c #9B6C00",
"I. c #E1B443",
"U. c #E1B443",
"Y. c #E1B443",
"T. c #E1B443",
"R. c #E1B443",
"E. c #E1B443",
"W. c #E1B443",
"Q. c #E1B443",
"!. c #E1B443",
"~. c #E1B443",
"^. c #E1B443",
"/. c #E0B342",
"(. c #9C6D01",
"). c #FFFFFF",
"_. c #FFFFFF",
"`. c #9B6C00",
"'. c #DAAA34",
"]. c #DAAA34",
"[. c #DAAA34",
"{. c #DAAA34",
"}. c #DAAA34",
"|. c #DAAA34",
" X c #DAAA34",
".X c #DAAA34",
"XX c #DAAA34",
"oX c #DAAA34",
"OX c #DAAA33",
"+X c #D9A932",
"@X c #9B6C00",
"#X c #FFFFFF",
"$X c #FFFFFF",
"%X c #9B6C00",
"&X c #D5A122",
"*X c #D5A122",
"=X c #D5A122",
"-X c #D5A122",
";X c #D5A122",
":X c #D5A122",
">X c #D5A122",
",X c #D5A122",
"<X c #D5A122",
"1X c #D5A122",
"2X c #D5A122",
"3X c #D5A122",
"4X c #9B6C00",
"5X c #FFFFFF",
"6X c #FFFFFF",
"7X c #9E6E01",
"8X c #C08A0A",
"9X c #D2990F",
"0X c #D2990F",
"qX c #D2990F",
"wX c #D2990F",
"eX c #D2990F",
"rX c #D2990F",
"tX c #D2990F",
"yX c #D2990F",
"uX c #D2990F",
"iX c #D2990F",
"pX c #C7900C",
"aX c #9D6E01",
"sX c #FFFFFF",
"dX c #FFFFFF",
"fX c #9B6C00",
"gX c #9C6D00",
"hX c #9B6C00",
"jX c #9B6C00",
"kX c #9B6C00",
"lX c #9B6C00",
"zX c #9B6C00",
"xX c #9B6C00",
"cX c #9B6C00",
"vX c #9B6C00",
"bX c #9B6C00",
"nX c #9B6C00",
"mX c #9C6D00",
"MX c #9C6D00",
"NX c #FFFFFF",
"BX c #FFFFFF",
"VX c #FFFFFF",
"CX c #FFFFFF",
"ZX c #9B6C00",
"AX c #9B6C00",
"SX c #9B6C00",
"DX c #9B6C00",
"FX c #9B6C00",
"GX c #9B6C00",
"HX c #9B6C00",
"JX c #9B6C00",
"KX c #9B6C00",
"LX c #9B6C00",
"PX c #FFFFFF",
"IX c #FFFFFF",
"UX c #FFFFFF",
/* pixels */
"  . X o O + @ # $ % & * = - ; : ",
"> , < 1 2 3 4 5 6 7 8 9 0 q w e ",
"r t y u i p a s d f g h j k l z ",
"x c v b n m M N B V C Z A S D F ",
"G H J K L P I U Y T R E W Q ! ~ ",
"^ / ( ) _ ` ' ] [ { } |  ...X.o.",
"O.+.@.#.$.%.&.*.=.-.;.:.>.,.<.1.",
"2.3.4.5.6.7.8.9.0.q.w.e.r.t.y.u.",
"i.p.a.s.d.f.g.h.j.k.l.z.x.c.v.b.",
"n.m.M.N.B.V.C.Z.A.S.D.F.G.H.J.K.",
"L.P.I.U.Y.T.R.E.W.Q.!.~.^./.(.).",
"_.`.'.].[.{.}.|. X.XXXoXOX+X@X#X",
"$X%X&X*X=X-X;X:X>X,X<X1X2X3X4X5X",
"6X7X8X9X0XqXwXeXrXtXyXuXiXpXaXsX",
"dXfXgXhXjXkXlXzXxXcXvXbXnXmXMXNX",
"BXVXCXZXAXSXDXFXGXHXJXKXLXPXIXUX"
};
