/* XPM */
static const char * const restart[] = {
/* columns rows colors chars-per-pixel */
"16 16 256 2 ",
"   c None",
".  c #FFFFFF",
"X  c #FFFFFF",
"o  c #FFFFFF",
"O  c #FFFFFF",
"+  c #FFFFFF",
"@  c #FFFFFF",
"#  c #FFFFFF",
"$  c #FFFFFF",
"%  c #FFFFFF",
"&  c #FFFFFF",
"*  c #FFFFFF",
"=  c #FFFFFF",
"-  c #FFFFFF",
";  c #FFFFFF",
":  c #FFFFFF",
">  c #FFFFFF",
",  c #FFFFFF",
"<  c #FFFFFF",
"1  c #FFFFFF",
"2  c #FFFFFF",
"3  c #505050",
"4  c #343434",
"5  c #393939",
"6  c #3E3E3E",
"7  c #434343",
"8  c #484848",
"9  c #4C4C4C",
"0  c #4B4B4B",
"q  c #4A4A4A",
"w  c #4E4E4E",
"e  c #FFFFFF",
"r  c #FFFFFF",
"t  c #FFFFFF",
"y  c #FFFFFF",
"u  c #FFFFFF",
"i  c #FFFFFF",
"p  c #4F4F4F",
"a  c #132631",
"s  c #2D6C8F",
"d  c #255B77",
"f  c #204C64",
"g  c #1A3D4F",
"h  c #163241",
"j  c #142D3B",
"k  c #0F1A20",
"l  c #484848",
"z  c #FFFFFF",
"x  c #FFFFFF",
"c  c #FFFFFF",
"v  c #FFFFFF",
"b  c #FFFFFF",
"n  c #FFFFFF",
"m  c #4F4F4F",
"M  c #1C3C4D",
"N  c #45BCFC",
"B  c #43BBFB",
"V  c #41BAFB",
"C  c #3FB9FB",
"Z  c #3CB8FA",
"A  c #3AB7FA",
"S  c #10242E",
"D  c #484848",
"F  c #FFFFFF",
"G  c #FFFFFF",
"H  c #FFFFFF",
"J  c #FFFFFF",
"K  c #FFFFFF",
"L  c #FFFFFF",
"P  c #3F4E56",
"I  c #3C5460",
"U  c #3FB2F0",
"Y  c #3EB9FB",
"T  c #3CB8FA",
"R  c #3AB7FA",
"E  c #38B6F9",
"W  c #36B5F9",
"Q  c #0F232E",
"!  c #484848",
"~  c #FFFFFF",
"^  c #FFFFFF",
"/  c #FFFFFF",
"(  c #FFFFFF",
")  c #FFFFFF",
"_  c #FFFFFF",
"`  c #3B4E57",
"'  c #D0D5D8",
"]  c #426A7E",
"[  c #3AB0EF",
"{  c #38B6F9",
"}  c #36B5F9",
"|  c #33B4F9",
" . c #31B3F8",
".. c #0E232D",
"X. c #484848",
"o. c #FFFFFF",
"O. c #364E59",
"+. c #364E59",
"@. c #364E59",
"#. c #364E59",
"$. c #364E59",
"%. c #374E58",
"&. c #FFFFFF",
"*. c #D1D6D9",
"=. c #41697E",
"-. c #33ADEE",
";. c #31B3F8",
":. c #2FB2F8",
">. c #2DB1F7",
",. c #0E222D",
"<. c #484848",
"1. c #FFFFFF",
"2. c #364E59",
"3. c #FFFFFF",
"4. c #FFFFFF",
"5. c #FFFFFF",
"6. c #FFFFFF",
"7. c #FFFFFF",
"8. c #FFFFFF",
"9. c #FBC5C5",
"0. c #D1D6D9",
"q. c #40697E",
"w. c #2DAAEC",
"e. c #2AB0F7",
"r. c #1F88C0",
"t. c #0D222D",
"y. c #484848",
"u. c #FFFFFF",
"i. c #364E59",
"p. c #FFFFFF",
"a. c #E91818",
"s. c #E91919",
"d. c #EA1A1A",
"f. c #EA1B1B",
"g. c #EB1C1C",
"h. c #ED2525",
"j. c #FAC5C5",
"k. c #D1D6D9",
"l. c #3F687D",
"z. c #27A7EB",
"x. c #1C86BF",
"c. c #0C222D",
"v. c #484848",
"b. c #FFFFFF",
"n. c #364E59",
"m. c #FFFFFF",
"M. c #E61313",
"N. c #E71414",
"B. c #E71515",
"V. c #E81616",
"C. c #E81717",
"Z. c #E91919",
"A. c #EB2323",
"S. c #FAC8C8",
"D. c #D1D6D9",
"F. c #3D6F89",
"G. c #1FABF5",
"H. c #0C212D",
"J. c #484848",
"K. c #FFFFFF",
"L. c #364E59",
"P. c #FFFFFF",
"I. c #E40E0E",
"U. c #E40F0F",
"Y. c #E51111",
"T. c #E51212",
"R. c #E61313",
"E. c #E61414",
"W. c #E82020",
"Q. c #FAC8C8",
"!. c #D1D6D9",
"~. c #3C6F89",
"^. c #1BA9F4",
"/. c #0B212D",
"(. c #484848",
"). c #FFFFFF",
"_. c #364E59",
"`. c #FFFFFF",
"'. c #E10A0A",
"]. c #E20B0B",
"[. c #E20C0C",
"{. c #E30D0D",
"}. c #E30E0E",
"|. c #E51A1A",
" X c #F9C7C7",
".X c #D1D6D9",
"XX c #3D677D",
"oX c #1AA2E9",
"OX c #16A7F3",
"+X c #0A212D",
"@X c #484848",
"#X c #FFFFFF",
"$X c #364E59",
"%X c #FFFFFF",
"&X c #FFFFFF",
"*X c #FFFFFF",
"=X c #FFFFFF",
"-X c #FFFFFF",
";X c #FFFFFF",
":X c #F8C5C5",
">X c #D1D6D9",
",X c #3C677D",
"<X c #18A1E8",
"1X c #14A6F3",
"2X c #11A5F3",
"3X c #09202C",
"4X c #484848",
"5X c #FFFFFF",
"6X c #364E59",
"7X c #364E59",
"8X c #364E59",
"9X c #364E59",
"0X c #364E59",
"qX c #374E58",
"wX c #FFFFFF",
"eX c #D1D6D9",
"rX c #3B5867",
"tX c #104560",
"yX c #0B364D",
"uX c #092B3C",
"iX c #092635",
"pX c #0A161C",
"aX c #484848",
"sX c #FFFFFF",
"dX c #FFFFFF",
"fX c #FFFFFF",
"gX c #FFFFFF",
"hX c #FFFFFF",
"jX c #FFFFFF",
"kX c #3C4E57",
"lX c #D0D5D8",
"zX c #41555D",
"xX c #3C3E3F",
"cX c #424242",
"vX c #464646",
"bX c #4B4B4B",
"nX c #4B4B4B",
"mX c #4A4A4A",
"MX c #4E4E4E",
"NX c #FFFFFF",
"BX c #FFFFFF",
"VX c #FFFFFF",
"CX c #FFFFFF",
"ZX c #FFFFFF",
"AX c #FFFFFF",
"SX c #364E59",
"DX c #445A65",
"FX c #364E59",
"GX c #FFFFFF",
"HX c #FFFFFF",
"JX c #FFFFFF",
"KX c #FFFFFF",
"LX c #FFFFFF",
"PX c #FFFFFF",
"IX c #FFFFFF",
"UX c #FFFFFF",
/* pixels */
"  . X o O + @ # $ % & * = - ; : ",
"> , < 1 2 3 4 5 6 7 8 9 0 q w e ",
"r t y u i p a s d f g h j k l z ",
"x c v b n m M N B V C Z A S D F ",
"G H J K L P I U Y T R E W Q ! ~ ",
"^ / ( ) _ ` ' ] [ { } |  ...X.o.",
"O.+.@.#.$.%.&.*.=.-.;.:.>.,.<.1.",
"2.3.4.5.6.7.8.9.0.q.w.e.r.t.y.u.",
"i.p.a.s.d.f.g.h.j.k.l.z.x.c.v.b.",
"n.m.M.N.B.V.C.Z.A.S.D.F.G.H.J.K.",
"L.P.I.U.Y.T.R.E.W.Q.!.~.^./.(.).",
"_.`.'.].[.{.}.|. X.XXXoXOX+X@X#X",
"$X%X&X*X=X-X;X:X>X,X<X1X2X3X4X5X",
"6X7X8X9X0XqXwXeXrXtXyXuXiXpXaXsX",
"dXfXgXhXjXkXlXzXxXcXvXbXnXmXMXNX",
"BXVXCXZXAXSXDXFXGXHXJXKXLXPXIXUX"
};
