/* XPM */
static const char * const suggestion_xpm[] = {
/* columns rows colors chars-per-pixel */
"24 24 193 2 ",
"   c #1E1F1E",
".  c #242625",
"X  c #292A29",
"o  c #2C2D2C",
"O  c #2E2F2E",
"+  c #3D3E3D",
"@  c #3F403F",
"#  c #41423F",
"$  c #404140",
"%  c #444444",
"&  c #454545",
"*  c #49494A",
"=  c #4A4B4A",
"-  c #4B4C4A",
";  c #4D4D4D",
":  c #4E4F4D",
">  c #4D4E4E",
",  c #4F4F4E",
"<  c #505051",
"1  c #505151",
"2  c #525253",
"3  c #535353",
"4  c #565753",
"5  c #535354",
"6  c #545454",
"7  c #565756",
"8  c #575757",
"9  c #575857",
"0  c #585957",
"q  c #595A58",
"w  c #5A5B58",
"e  c #5A5A5B",
"r  c #5E5F5D",
"t  c #5D5D5E",
"y  c #5E5E5F",
"u  c #5F5F60",
"i  c #616162",
"p  c #626262",
"a  c #646562",
"s  c #646563",
"d  c #656664",
"f  c #666765",
"g  c #666766",
"h  c #676866",
"j  c #696A66",
"k  c #696969",
"l  c #6A6B68",
"z  c #6A6A69",
"x  c #6A6B69",
"c  c #69696A",
"v  c #6B6B6A",
"b  c #6A6C68",
"n  c #6B6C6A",
"m  c #686B6C",
"M  c #696C6E",
"N  c #6F6F6F",
"B  c #6F706C",
"V  c #6F716E",
"C  c #70716F",
"Z  c #6F6F70",
"A  c #6E7170",
"S  c #707071",
"D  c #717171",
"F  c #717270",
"G  c #717172",
"H  c #727272",
"J  c #727372",
"K  c #737470",
"L  c #757675",
"P  c #767675",
"I  c #767776",
"U  c #777876",
"Y  c #787877",
"T  c #797A76",
"R  c #797B76",
"E  c #7A7C77",
"W  c #757778",
"Q  c #787B7A",
"!  c #7E7F7E",
"~  c #7F7F7F",
"^  c #7E807E",
"/  c #818180",
"(  c #828382",
")  c #838580",
"_  c #848583",
"`  c #8B8B8A",
"'  c #8A8A8B",
"]  c #8C8E89",
"[  c #8E8F8E",
"{  c #8F8F8E",
"}  c #919190",
"|  c #919291",
" . c #959594",
".. c #969795",
"X. c #949696",
"o. c #989996",
"O. c #979898",
"+. c #989899",
"@. c #9A9A99",
"#. c #9E9E9E",
"$. c #A0A19F",
"%. c #A6A7A5",
"&. c #A9AAA8",
"*. c #A9AAAA",
"=. c #AEAEAD",
"-. c #B0B1AE",
";. c #B2B3B1",
":. c #B2B2B3",
">. c #B4B4B4",
",. c #B5B6B6",
"<. c #B7B7B8",
"1. c #B9B9B8",
"2. c #BBBBBB",
"3. c #BDBEBC",
"4. c #BEBFBD",
"5. c #C1C1C1",
"6. c #C2C3C1",
"7. c #C2C2C3",
"8. c #C3C4C3",
"9. c #C4C4C3",
"0. c #C5C5C4",
"q. c #C4C4C5",
"w. c #C6C6C5",
"e. c #C5C5C6",
"r. c #C6C6C6",
"t. c #C6C6C7",
"y. c #C7C7C7",
"u. c #C8C9C7",
"i. c #C7C7C8",
"p. c #C7C7C9",
"a. c #C8C8C9",
"s. c #C8C8CA",
"d. c #C9C9CB",
"f. c #CBCBCA",
"g. c #CACACB",
"h. c #CACACC",
"j. c #CBCBCC",
"k. c #CBCBCD",
"l. c #CCCCCD",
"z. c #CDCDCD",
"x. c #CECFCD",
"c. c #CDCDCE",
"v. c #CDCDCF",
"b. c #CECECF",
"n. c #CFCFCF",
"m. c #CDCDD0",
"M. c #CECED0",
"N. c #D0D0D1",
"B. c #D1D1D3",
"V. c #D2D2D3",
"C. c #D3D4D2",
"Z. c #D2D2D4",
"A. c #D3D3D5",
"S. c #D4D4D5",
"D. c #D6D6D7",
"F. c #D7D7D7",
"G. c #D6D6D8",
"H. c #D7D7D9",
"J. c #D9D9D9",
"K. c #DADBD9",
"L. c #D8D8DA",
"P. c #DADADC",
"I. c #DBDBDC",
"U. c #DBDBDD",
"Y. c #DDDDDC",
"T. c #DCDCDE",
"R. c #DDDDDF",
"E. c #DEDEDE",
"W. c #DFDFDF",
"Q. c #DEDEE1",
"!. c #DFDFE1",
"~. c #E1E1E1",
"^. c #E2E2E2",
"/. c #E3E3E5",
"(. c #E5E5E5",
"). c #E6E6E5",
"_. c #E4E4E6",
"`. c #E5E5E7",
"'. c #E6E6E6",
"]. c #E7E7E6",
"[. c #E6E6E7",
"{. c #E7E7E7",
"}. c #E6E6E8",
"|. c #E8E8E9",
" X c #E9E9EA",
".X c #EBEBEB",
"XX c #ECECEC",
"oX c #F0F0EF",
"OX c #F1F1F2",
"+X c #F3F4F3",
"@X c #F5F5F5",
"#X c #F7F7F7",
"$X c None",
/* pixels */
"$X$X$X$X$X$X$X$X$X$X$X$X$X$X$X$X$X$X$X$X$X$X$X$X",
"$X$X$X$X$X$X$X$X$X$X$X$X$X$X$X$X$X$X$X$X$X$X$X$X",
"$X$X$X$X$X$X$X$X$X$X$X$X$X$X$X$X$X^.(.n.-.$X$X$X",
"$X$X$X$X$X$X$X$X$X$X$X$X$X$X$X$X9.+X.X@.; $X$X$X",
"$X$X$X$X$X$X$X$X$X$X$X$X$X$X$X$X1.oXY.R $X$X$X$X",
"$X$X$X$X$X$X$X$X$X$X$X$X$X$X$Xl %.(.].#.$X$X$X$X",
"$X#X(.XX.XW.W.W.W.(.+X(.W.W.J.&...8.].r.%.s.5.t ",
"$XOXn.^.N.5.r.r.q.r..Xr.q.r.2.&.} Q &.J.$.-.$.@ ",
"$XD.n.}.D.W.}.}./.B.(.B./.}.n.2.m M m N.4.} Z % ",
"$X(.D.T.B.H.!.!.T.m.!.m.W.m.,.u...W A =...% u = ",
"$X(.p.T.m.B.W.J.H.p.T.s.r.O.9 ~ r.L ; 5 % < H 5 ",
"$Xm.r.!.s.s.m.m.k.q.D.:.^ + ; | Z 1 5 q u l +.$X",
"$Xk.D.n.s.k.s.s.k.s.>.H . o L l 7 t t i Z ` <.$X",
"$X$X$X$X$X$X$X$X$X$Xq X   0 l $X$X$X$X$X$X$X$X$X",
"$X$X$X$X$X$X$X$X$Xs $ O ; n $X$X$X$X$X$X$X$X$X$X",
"$X$X$X$X$X$X$X$XH 7 = 7 l $X$X$X$X$X$X$X$X$X$X$X",
"$X$X$X$X$X$X$X` H g g s $X$X$X$X$X$X$X$X$X$X$X$X",
"$X$X$X$X$X$X_ ~ ~ L g $X$X$X$X$X$X$X$X$X$X$X$X$X",
"$X$X$X$Xn g l L / R $X$X$X$X$X$X$X$X$X$X$X$X$X$X",
"$X$X$XE n l i H ..$X$X$X$X$X$X$X$X$X$X$X$X$X$X$X",
"$X$X$Xj $Xw C | / $X$X$X$X$X$X$X$X$X$X$X$X$X$X$X",
"$X$X$XK $X$X) C $X$X$X$X$X$X$X$X$X$X$X$X$X$X$X$X",
"$X$X$XR ] E 4 $X$X$X$X$X$X$X$X$X$X$X$X$X$X$X$X$X",
"$X$X$X$X- # $X$X$X$X$X$X$X$X$X$X$X$X$X$X$X$X$X$X"
};
